X:1
T:Title
%%score 1 2
L:1/8
Q:1/4=65
M:2/4
K:Eb
V:1 treble nm="Strings 1, Soprano"
V:2 bass nm="Strings 1, Bass"
V:1
 [EG][EG] [B,F][B,E] | [EG][GB] [Ac][GB] | [EG][EG] [B,F][B,E] | [EB][EG] [DF]2 | %4
w: 1.~Keep~ me~ near~ Thee,~|bless ed~ Je sus,~|Keep~ me~ near~ Thee~|lest~ I~ stray;~|
 [EG][EG] [B,F][B,E] | [EG][GB] [Ac][GB] | [Ge][EB] [Ec][EB] | [EG][DF] E2 | [GB][GB] [GB][GB] | %9
w: With~ Thy~ might y~|hand~ up hold~ me,~|Lead~ me~ gent ly~|all~ the~ way.~||
 [Ac][Ac] [Ac][Ac] | [Fd][Fd] [Ad][Ad] | [Ge][_Ge] [=Ge]2[Q:1/4=12] | %12
w: |||
[Q:1/4=65] [EG][EG] [B,F][B,E] | [EG][GB] [Ac][GB] | [Ge][GB] [Ac][EB] | [EG][B,F] [B,E]2 |] %16
w: ||||
V:2
 [E,B,][E,B,] [E,A,][E,G,] | [E,B,][E,E] [E,E][E,E] | [E,B,][E,B,] [E,A,][E,G,] | %3
 [G,B,][E,B,] [B,,B,]2 | [E,B,][E,B,] [E,A,][E,G,] | [E,B,][E,E] [E,E][E,E] | %6
 [E,B,][E,G,] [E,A,][E,G,] | [B,,B,][B,,A,] [E,G,]2 | [E,E][E,E] [E,E][E,E] | %9
 [A,E][A,E] [A,E][A,E] | B,B, [B,,B,][B,,B,] | [E,B,][E,=A,] [E,B,]2 | [E,B,][E,B,] [E,A,][E,G,] | %13
 [E,B,][E,E] [E,E][E,E] | [E,B,][E,B,] [E,B,][G,B,] | B,[B,,A,] [E,G,]2 |] %16

